icons/mini/plus.svg

<svg width="20" height="20" viewBox="0 0 20 20" fill="none" xmlns="http://www.w3.org/2000/svg">
<path d="M10.75 4.75C10.75 4.33579 10.4142 4 10 4C9.58579 4 9.25 4.33579 9.25 4.75V9.25H4.75C4.33579 9.25 4 9.58579 4 10C4 10.4142 4.33579 10.75 4.75 10.75L9.25 10.75V15.25C9.25 15.6642 9.58579 16 10 16C10.4142 16 10.75 15.6642 10.75 15.25V10.75L15.25 10.75C15.6642 10.75 16 10.4142 16 10C16 9.58579 15.6642 9.25 15.25 9.25H10.75V4.75Z" fill="#0F172A"/>
</svg>

<svg xmlns="http://www.w3.org/2000/svg" viewBox="0 0 20 20" fill="currentColor" aria-hidden="true" data-slot="icon">
  <path d="M10.75 4.75a.75.75 0 0 0-1.5 0v4.5h-4.5a.75.75 0 0 0 0 1.5h4.5v4.5a.75.75 0 0 0 1.5 0v-4.5h4.5a.75.75 0 0 0 0-1.5h-4.5v-4.5Z"/>
</svg>
